src/images/admin/admin_f2_0.svg

<svg height="400" viewBox="0 0 350 400" width="350" xmlns="http://www.w3.org/2000/svg"><path d="m1157.8731 1473.55556v21.77777l-18.65483 10.66667v-21.33333zm-49.7462 0 18.65483 11.11111v21.33333l-18.65483-10.66667zm87.05584-21.33334v21.33334l-18.65482 11.11111v-21.77778zm-124.36548 0 18.65482 10.66667v21.77778l-18.65482-11.11111zm105.71066-11.11111v21.77778l-18.65482 10.66667v-21.33334zm-87.05584 0 18.65482 11.11111v21.33334l-18.65482-10.66667zm68.40102-10.66667v21.77778l-18.65483 10.66667v-21.77778zm-49.7462 0 18.65483 10.66667v21.77778l-18.65483-10.66667zm87.05584-21.77777v21.77777l-18.65482 10.66667v-21.33333zm75.06345 0v21.77777l-18.65482 10.66667v-21.33333zm-199.42893 0 18.65482 11.11111v21.33333l-18.65482-10.66667zm-75.063453 0 18.654823 11.11111v21.33333l-18.654823-10.66667zm312.246193-21.33334v21.33334l-19.09898 11.11111v-21.77778zm-350 0 19.098985 10.66667v21.77778l-19.098985-11.11111zm256.28173-11.11111v21.77778l-19.09899 10.66667v-21.33334zm74.61929 0v21.77778l-18.65483 10.66667v-21.33334zm-237.18275 0 19.09899 11.11111v21.33334l-19.09899-10.66667zm-74.619285 0 18.654822 11.11111v21.33334l-18.654822-10.66667zm293.147205-10.66666v21.77777l-18.65482 10.66667v-21.77778zm-274.492383 0 18.654823 10.66666v21.77778l-18.654823-10.66667zm255.837563-10.66667v21.33333l-18.65482 11.11111v-21.77777zm-237.18274 0 18.65482 10.66667v21.77777l-18.65482-11.11111zm143.46447-11.11111v21.77778l-18.65483 10.66666v-21.33333zm75.06345 0v21.77778l-18.65482 10.66666v-21.33333zm75.06345 0v21.77778l-19.09898 10.66666v-21.33333zm-199.8731 0 18.65483 11.11111v21.33333l-18.65483-10.66666zm-75.06345 0 18.65482 11.11111v21.33333l-18.65482-10.66666zm-75.06345 0 19.098985 11.11111v21.33333l-19.098985-10.66666zm256.28173-10.66667v21.77778l-19.09899 10.66667v-21.77778zm-162.56346 0 19.09899 10.66667v21.77778l-19.09899-10.66667zm143.46447-10.66667v21.33334l-18.65482 11.11111v-21.77778zm-124.36548 0 18.65482 10.66667v21.77778l-18.65482-11.11111zm105.71066-11.11111v21.77778l-18.65482 10.66667v-21.33334zm75.06345 0v21.77778l-18.65482 10.66667v-21.33334zm-162.11929 0 18.65482 11.11111v21.33334l-18.65482-10.66667zm-75.06345 0 18.65482 11.11111v21.33334l-18.65482-10.66667zm143.46447-10.66666v21.77777l-18.65483 10.66667v-21.77778zm-49.7462 0 18.65483 10.66666v21.77778l-18.65483-10.66667zm-112.373093-21.77778 18.654823 10.66667v21.77777l-18.654823-10.66666zm75.063453 0 18.65482 10.66667v21.77777l-18.65482-10.66666zm124.36548 0v21.77778l-18.65482 10.66666v-21.77777zm75.06345 0v21.77778l-18.65482 10.66666v-21.77777zm-137.24619.44444 18.65482 10.66667-18.65482 11.11111-18.65482-11.11111zm175-22.22222v21.77778l-19.09898 10.66667v-21.33334zm-350 0 19.098985 11.11111v21.33334l-19.098985-10.66667zm212.30964.44445 19.09899 11.11111-19.09899 10.66666-18.65482-10.66666zm-74.61928 0 18.65482 11.11111-18.65482 10.66666-19.09899-10.66666zm37.30964 0 18.65482 11.11111-18.65482 10.66666-18.65482-10.66666zm-155.901015-11.11112 18.654822 10.66667v21.77778l-18.654822-10.66667zm311.802035 0v21.77778l-18.65483 10.66667v-21.77778zm-293.147213-10.66666 18.654823 10.66666v21.77778l-18.654823-11.11111zm274.492383 0v21.33333l-18.65482 11.11111v-21.77778zm-137.24619.44444 18.65482 10.66667-18.65482 10.66667-18.65482-10.66667zm175-22.22222v21.77778l-19.09898 10.66666v-21.77777zm-350 0 19.098985 10.66667v21.77777l-19.098985-10.66666zm175 .44444 18.65482 10.66667-18.65482 11.11111-18.65482-11.11111zm112.3731 0 18.65482 10.66667-18.65482 11.11111-18.65483-11.11111zm-224.7462 0 18.65483 10.66667-18.65483 11.11111-18.65482-11.11111zm224.7462-21.77777 18.65482 11.11111-18.65482 10.66666-18.65483-10.66666zm-224.7462 0 18.65483 11.11111-18.65483 10.66666-18.65482-10.66666zm149.68274 0 19.09899 11.11111-19.09899 10.66666-18.65482-10.66666zm-186.992381 0 18.654821 11.11111-18.654821 10.66666-19.098985-10.66666zm224.746191 0 18.65482 11.11111-18.65482 10.66666-18.65482-10.66666zm-150.1269 0 18.65482 11.11111-18.65482 10.66666-18.65482-10.66666zm37.75381 0 18.65482 11.11111-18.65482 10.66666-19.09899-10.66666zm186.99238 0 19.09899 11.11111-19.09899 10.66666-18.65482-10.66666zm-149.68274 0 18.65482 11.11111-18.65482 10.66666-18.65482-10.66666zm-112.3731-21.33334 18.65483 10.66667-18.65483 10.66667-18.65482-10.66667zm112.3731 0 18.65482 10.66667-18.65482 10.66667-18.65482-10.66667zm112.3731 0 18.65482 10.66667-18.65482 10.66667-18.65483-10.66667zm-112.3731-21.77777 18.65482 10.66666-18.65482 11.11111-18.65482-11.11111zm37.30964-21.77778 19.09899 11.11111-19.09899 10.66667-18.65482-10.66667zm-74.61928 0 18.65482 11.11111-18.65482 10.66667-19.09899-10.66667zm37.30964 0 18.65482 11.11111-18.65482 10.66667-18.65482-10.66667zm0-21.77778 18.65482 11.11111-18.65482 10.66667-18.65482-10.66667z" fill="#96dbfb" fill-opacity=".5" transform="translate(-958 -1106)"/></svg>

<?xml version="1.0" encoding="UTF-8"?>
<svg width="350px" height="400px" viewBox="0 0 350 400" version="1.1" xmlns="http://www.w3.org/2000/svg" xmlns:xlink="http://www.w3.org/1999/xlink">
    <!-- Generator: Sketch 62 (91390) - https://sketch.com -->
    <title>admin_f2_0</title>
    <desc>Created with Sketch.</desc>
    <g id="light" stroke="none" stroke-width="1" fill="none" fill-rule="evenodd" fill-opacity="0.5">
        <g id="Admin" transform="translate(-958.000000, -1106.000000)" fill="#96DBFB" fill-rule="nonzero">
            <path d="M1157.8731,1473.55556 L1157.8731,1495.33333 L1139.21827,1506 L1139.21827,1484.66667 L1157.8731,1473.55556 Z M1108.1269,1473.55556 L1126.78173,1484.66667 L1126.78173,1506 L1108.1269,1495.33333 L1108.1269,1473.55556 Z M1195.18274,1452.22222 L1195.18274,1473.55556 L1176.52792,1484.66667 L1176.52792,1462.88889 L1195.18274,1452.22222 Z M1070.81726,1452.22222 L1089.47208,1462.88889 L1089.47208,1484.66667 L1070.81726,1473.55556 L1070.81726,1452.22222 Z M1176.52792,1441.11111 L1176.52792,1462.88889 L1157.8731,1473.55556 L1157.8731,1452.22222 L1176.52792,1441.11111 Z M1089.47208,1441.11111 L1108.1269,1452.22222 L1108.1269,1473.55556 L1089.47208,1462.88889 L1089.47208,1441.11111 Z M1157.8731,1430.44444 L1157.8731,1452.22222 L1139.21827,1462.88889 L1139.21827,1441.11111 L1157.8731,1430.44444 Z M1108.1269,1430.44444 L1126.78173,1441.11111 L1126.78173,1462.88889 L1108.1269,1452.22222 L1108.1269,1430.44444 Z M1195.18274,1408.66667 L1195.18274,1430.44444 L1176.52792,1441.11111 L1176.52792,1419.77778 L1195.18274,1408.66667 Z M1270.24619,1408.66667 L1270.24619,1430.44444 L1251.59137,1441.11111 L1251.59137,1419.77778 L1270.24619,1408.66667 Z M1070.81726,1408.66667 L1089.47208,1419.77778 L1089.47208,1441.11111 L1070.81726,1430.44444 L1070.81726,1408.66667 Z M995.753807,1408.66667 L1014.40863,1419.77778 L1014.40863,1441.11111 L995.753807,1430.44444 L995.753807,1408.66667 Z M1308,1387.33333 L1308,1408.66667 L1288.90102,1419.77778 L1288.90102,1398 L1308,1387.33333 Z M958,1387.33333 L977.098985,1398 L977.098985,1419.77778 L958,1408.66667 L958,1387.33333 Z M1214.28173,1376.22222 L1214.28173,1398 L1195.18274,1408.66667 L1195.18274,1387.33333 L1214.28173,1376.22222 Z M1288.90102,1376.22222 L1288.90102,1398 L1270.24619,1408.66667 L1270.24619,1387.33333 L1288.90102,1376.22222 Z M1051.71827,1376.22222 L1070.81726,1387.33333 L1070.81726,1408.66667 L1051.71827,1398 L1051.71827,1376.22222 Z M977.098985,1376.22222 L995.753807,1387.33333 L995.753807,1408.66667 L977.098985,1398 L977.098985,1376.22222 Z M1270.24619,1365.55556 L1270.24619,1387.33333 L1251.59137,1398 L1251.59137,1376.22222 L1270.24619,1365.55556 Z M995.753807,1365.55556 L1014.40863,1376.22222 L1014.40863,1398 L995.753807,1387.33333 L995.753807,1365.55556 Z M1251.59137,1354.88889 L1251.59137,1376.22222 L1232.93655,1387.33333 L1232.93655,1365.55556 L1251.59137,1354.88889 Z M1014.40863,1354.88889 L1033.06345,1365.55556 L1033.06345,1387.33333 L1014.40863,1376.22222 L1014.40863,1354.88889 Z M1157.8731,1343.77778 L1157.8731,1365.55556 L1139.21827,1376.22222 L1139.21827,1354.88889 L1157.8731,1343.77778 Z M1232.93655,1343.77778 L1232.93655,1365.55556 L1214.28173,1376.22222 L1214.28173,1354.88889 L1232.93655,1343.77778 Z M1308,1343.77778 L1308,1365.55556 L1288.90102,1376.22222 L1288.90102,1354.88889 L1308,1343.77778 Z M1108.1269,1343.77778 L1126.78173,1354.88889 L1126.78173,1376.22222 L1108.1269,1365.55556 L1108.1269,1343.77778 Z M1033.06345,1343.77778 L1051.71827,1354.88889 L1051.71827,1376.22222 L1033.06345,1365.55556 L1033.06345,1343.77778 Z M958,1343.77778 L977.098985,1354.88889 L977.098985,1376.22222 L958,1365.55556 L958,1343.77778 Z M1214.28173,1333.11111 L1214.28173,1354.88889 L1195.18274,1365.55556 L1195.18274,1343.77778 L1214.28173,1333.11111 Z M1051.71827,1333.11111 L1070.81726,1343.77778 L1070.81726,1365.55556 L1051.71827,1354.88889 L1051.71827,1333.11111 Z M1195.18274,1322.44444 L1195.18274,1343.77778 L1176.52792,1354.88889 L1176.52792,1333.11111 L1195.18274,1322.44444 Z M1070.81726,1322.44444 L1089.47208,1333.11111 L1089.47208,1354.88889 L1070.81726,1343.77778 L1070.81726,1322.44444 Z M1176.52792,1311.33333 L1176.52792,1333.11111 L1157.8731,1343.77778 L1157.8731,1322.44444 L1176.52792,1311.33333 Z M1251.59137,1311.33333 L1251.59137,1333.11111 L1232.93655,1343.77778 L1232.93655,1322.44444 L1251.59137,1311.33333 Z M1089.47208,1311.33333 L1108.1269,1322.44444 L1108.1269,1343.77778 L1089.47208,1333.11111 L1089.47208,1311.33333 Z M1014.40863,1311.33333 L1033.06345,1322.44444 L1033.06345,1343.77778 L1014.40863,1333.11111 L1014.40863,1311.33333 Z M1157.8731,1300.66667 L1157.8731,1322.44444 L1139.21827,1333.11111 L1139.21827,1311.33333 L1157.8731,1300.66667 Z M1108.1269,1300.66667 L1126.78173,1311.33333 L1126.78173,1333.11111 L1108.1269,1322.44444 L1108.1269,1300.66667 Z M995.753807,1278.88889 L1014.40863,1289.55556 L1014.40863,1311.33333 L995.753807,1300.66667 L995.753807,1278.88889 Z M1070.81726,1278.88889 L1089.47208,1289.55556 L1089.47208,1311.33333 L1070.81726,1300.66667 L1070.81726,1278.88889 Z M1195.18274,1278.88889 L1195.18274,1300.66667 L1176.52792,1311.33333 L1176.52792,1289.55556 L1195.18274,1278.88889 Z M1270.24619,1278.88889 L1270.24619,1300.66667 L1251.59137,1311.33333 L1251.59137,1289.55556 L1270.24619,1278.88889 Z M1133,1279.33333 L1151.65482,1290 L1133,1301.11111 L1114.34518,1290 L1133,1279.33333 Z M1308,1257.11111 L1308,1278.88889 L1288.90102,1289.55556 L1288.90102,1268.22222 L1308,1257.11111 Z M958,1257.11111 L977.098985,1268.22222 L977.098985,1289.55556 L958,1278.88889 L958,1257.11111 Z M1170.30964,1257.55556 L1189.40863,1268.66667 L1170.30964,1279.33333 L1151.65482,1268.66667 L1170.30964,1257.55556 Z M1095.69036,1257.55556 L1114.34518,1268.66667 L1095.69036,1279.33333 L1076.59137,1268.66667 L1095.69036,1257.55556 Z M1133,1257.55556 L1151.65482,1268.66667 L1133,1279.33333 L1114.34518,1268.66667 L1133,1257.55556 Z M977.098985,1246.44444 L995.753807,1257.11111 L995.753807,1278.88889 L977.098985,1268.22222 L977.098985,1246.44444 Z M1288.90102,1246.44444 L1288.90102,1268.22222 L1270.24619,1278.88889 L1270.24619,1257.11111 L1288.90102,1246.44444 Z M995.753807,1235.77778 L1014.40863,1246.44444 L1014.40863,1268.22222 L995.753807,1257.11111 L995.753807,1235.77778 Z M1270.24619,1235.77778 L1270.24619,1257.11111 L1251.59137,1268.22222 L1251.59137,1246.44444 L1270.24619,1235.77778 Z M1133,1236.22222 L1151.65482,1246.88889 L1133,1257.55556 L1114.34518,1246.88889 L1133,1236.22222 Z M1308,1214 L1308,1235.77778 L1288.90102,1246.44444 L1288.90102,1224.66667 L1308,1214 Z M958,1214 L977.098985,1224.66667 L977.098985,1246.44444 L958,1235.77778 L958,1214 Z M1133,1214.44444 L1151.65482,1225.11111 L1133,1236.22222 L1114.34518,1225.11111 L1133,1214.44444 Z M1245.3731,1214.44444 L1264.02792,1225.11111 L1245.3731,1236.22222 L1226.71827,1225.11111 L1245.3731,1214.44444 Z M1020.6269,1214.44444 L1039.28173,1225.11111 L1020.6269,1236.22222 L1001.97208,1225.11111 L1020.6269,1214.44444 Z M1245.3731,1192.66667 L1264.02792,1203.77778 L1245.3731,1214.44444 L1226.71827,1203.77778 L1245.3731,1192.66667 Z M1020.6269,1192.66667 L1039.28173,1203.77778 L1020.6269,1214.44444 L1001.97208,1203.77778 L1020.6269,1192.66667 Z M1170.30964,1192.66667 L1189.40863,1203.77778 L1170.30964,1214.44444 L1151.65482,1203.77778 L1170.30964,1192.66667 Z M983.317259,1192.66667 L1001.97208,1203.77778 L983.317259,1214.44444 L964.218274,1203.77778 L983.317259,1192.66667 Z M1208.06345,1192.66667 L1226.71827,1203.77778 L1208.06345,1214.44444 L1189.40863,1203.77778 L1208.06345,1192.66667 Z M1057.93655,1192.66667 L1076.59137,1203.77778 L1057.93655,1214.44444 L1039.28173,1203.77778 L1057.93655,1192.66667 Z M1095.69036,1192.66667 L1114.34518,1203.77778 L1095.69036,1214.44444 L1076.59137,1203.77778 L1095.69036,1192.66667 Z M1282.68274,1192.66667 L1301.78173,1203.77778 L1282.68274,1214.44444 L1264.02792,1203.77778 L1282.68274,1192.66667 Z M1133,1192.66667 L1151.65482,1203.77778 L1133,1214.44444 L1114.34518,1203.77778 L1133,1192.66667 Z M1020.6269,1171.33333 L1039.28173,1182 L1020.6269,1192.66667 L1001.97208,1182 L1020.6269,1171.33333 Z M1133,1171.33333 L1151.65482,1182 L1133,1192.66667 L1114.34518,1182 L1133,1171.33333 Z M1245.3731,1171.33333 L1264.02792,1182 L1245.3731,1192.66667 L1226.71827,1182 L1245.3731,1171.33333 Z M1133,1149.55556 L1151.65482,1160.22222 L1133,1171.33333 L1114.34518,1160.22222 L1133,1149.55556 Z M1170.30964,1127.77778 L1189.40863,1138.88889 L1170.30964,1149.55556 L1151.65482,1138.88889 L1170.30964,1127.77778 Z M1095.69036,1127.77778 L1114.34518,1138.88889 L1095.69036,1149.55556 L1076.59137,1138.88889 L1095.69036,1127.77778 Z M1133,1127.77778 L1151.65482,1138.88889 L1133,1149.55556 L1114.34518,1138.88889 L1133,1127.77778 Z M1133,1106 L1151.65482,1117.11111 L1133,1127.77778 L1114.34518,1117.11111 L1133,1106 Z" id="admin_f2_0"></path>
        </g>
    </g>
</svg>
